assets/js/back-end/assets/icons/single-choice.svg

<svg clip-rule="evenodd" fill-rule="evenodd" stroke-linejoin="round" stroke-miterlimit="2" viewBox="0 0 28 28" xmlns="http://www.w3.org/2000/svg"><path d="m3.593 3.475h21.773v21.371h-21.773z" fill="#ebebeb"/><path d="m28 3c0-1.656-1.344-3-3-3h-22c-1.656 0-3 1.344-3 3v22c0 1.656 1.344 3 3 3h22c1.656 0 3-1.344 3-3zm-16.375 14.548-3.576-3.576-1.535 1.536 5.111 5.111 10.542-10.541-1.536-1.536z" fill="#ffc844"/></svg>

<?xml version="1.0" encoding="UTF-8" standalone="no"?>
<!DOCTYPE svg PUBLIC "-//W3C//DTD SVG 1.1//EN" "http://www.w3.org/Graphics/SVG/1.1/DTD/svg11.dtd">
<svg width="100%" height="100%" viewBox="0 0 28 28" version="1.1" xmlns="http://www.w3.org/2000/svg" xmlns:xlink="http://www.w3.org/1999/xlink" xml:space="preserve" xmlns:serif="http://www.serif.com/" style="fill-rule:evenodd;clip-rule:evenodd;stroke-linejoin:round;stroke-miterlimit:2;">
    <path d="M28,3C28,1.344 26.656,0 25,0L3,0C1.344,0 0,1.344 0,3L0,25C0,26.656 1.344,28 3,28L25,28C26.656,28 28,26.656 28,25L28,3ZM11.625,17.548L8.049,13.972L6.514,15.508L11.625,20.619L22.167,10.078L20.631,8.542L11.625,17.548Z" style="fill:rgb(255,200,68);"/>
</svg>
